X:25
T:Link2ABC HuggingFace Integration Session - Issue #25
C:JamAI ğŸ¸ G.Music Assembly 
L:1/8
Q:1/4=120
M:4/4
K:Gmaj
% â™ ï¸ğŸŒ¿ğŸ¸ğŸ¤–ğŸ§µ G.MUSIC ASSEMBLY MODE ACTIVE - SYNTH FOCUS
% Session melody encoding Link2ABC + HuggingFace ChatMusician integration flow
|:"G" G2 A2 B2 c2 |"Am" A2 G2 F2 E2 |"C" c2 B2 A2 G2 |"D" D4 F2 A2 :|
|:"Em" E2 F2 G2 A2 |"C" c2 d2 e2 f2 |"G" g2 f2 e2 d2 |"D" D4 G4 :|
% Bridge: HuggingFace enhancement transformation
|"Am" A2 c2 e2 a2 |"F" f2 e2 d2 c2 |"G" G2 B2 d2 g2 |"C" c8 |
% Coda: Dual output orchestration
|"G" g2 f2 e2 d2 |"C" c2 B2 A2 G2 |"D" D2 F2 A2 d2 |"G" G8 |]